packages/foundations/assets/icons/functional/images/social/star_28_filled.svg

<svg width="28" height="28" viewBox="0 0 28 28" fill="none" xmlns="http://www.w3.org/2000/svg">
<g clip-path="url(#clip0_2214_6240)">
<path fill-rule="evenodd" clip-rule="evenodd" d="M21.0273 25.6758C20.8906 25.6758 20.7583 25.6405 20.6172 25.5664L14 22.0937L7.38281 25.5664C7.24167 25.6405 7.10938 25.6758 6.9727 25.6758C6.39861 25.6758 6.01641 25.1306 6.0977 24.664L7.38281 17.2812L2.02344 12.0585C1.84292 11.8827 1.75 11.6484 1.75 11.4297C1.75 11.0959 1.9817 10.6276 2.48833 10.5547L9.89844 9.48831L13.2071 2.78905C13.3587 2.48183 13.6719 2.32416 14 2.32416C14.3281 2.32416 14.6413 2.48183 14.7929 2.78905L18.1016 9.48831L25.5117 10.5547C25.9664 10.6201 26.25 11.0474 26.25 11.4297C26.25 11.6484 26.1427 11.8967 25.9766 12.0585L20.6172 17.2812L21.9023 24.664C21.998 25.2135 21.5742 25.6758 21.0273 25.6758Z" fill="#1A1C1F"/>
</g>
<defs>
<clipPath id="clip0_2214_6240">
<rect width="28" height="28" fill="white"/>
</clipPath>
</defs>
</svg>

<svg xmlns="http://www.w3.org/2000/svg" width="28" height="28" fill="none"><g clip-path="url(#a)"><path fill="#1A1C1F" fill-rule="evenodd" d="M21.027 25.676a.86.86 0 0 1-.41-.11L14 22.094l-6.617 3.472a.86.86 0 0 1-.41.11.894.894 0 0 1-.875-1.012l1.285-7.383-5.36-5.222a.9.9 0 0 1-.273-.63c0-.333.232-.801.738-.874l7.41-1.067 3.31-6.699c.15-.307.464-.465.792-.465s.641.158.793.465l3.309 6.7 7.41 1.066c.454.065.738.492.738.875a.93.93 0 0 1-.273.629l-5.36 5.222 1.285 7.383c.096.55-.328 1.012-.875 1.012" clip-rule="evenodd"/></g><defs><clipPath id="a"><path fill="#fff" d="M0 0h28v28H0z"/></clipPath></defs></svg>
